www/assets/icons/rotate_left.svg

<svg width="24" height="24" viewBox="0 0 24 24" xmlns="http://www.w3.org/2000/svg" fill='currentColor'><path d="M7.07497 10.0652L5.66497 8.64516C4.76497 9.80516 4.20497 11.1452 4.03497 12.5352H6.05497C6.19497 11.6652 6.54497 10.8152 7.07497 10.0652ZM6.05497 14.5352H4.03497C4.20497 15.9252 4.75497 17.2652 5.65497 18.4252L7.06497 17.0052C6.54497 16.2552 6.19497 15.4152 6.05497 14.5352ZM7.06497 19.8552C8.22497 20.7552 9.57497 21.2952 10.965 21.4652V19.4352C10.095 19.2852 9.25497 18.9452 8.50497 18.4052L7.06497 19.8552ZM12.965 5.60516V2.53516L8.41497 7.08516L12.965 11.5352V7.62516C15.805 8.10516 17.965 10.5652 17.965 13.5352C17.965 16.5052 15.805 18.9652 12.965 19.4452V21.4652C16.915 20.9752 19.965 17.6152 19.965 13.5352C19.965 9.45516 16.915 6.09516 12.965 5.60516Z"/></svg>

<svg xmlns="http://www.w3.org/2000/svg" width="24" height="24" viewBox="0 0 24 24" fill='currentColor'><path d="m7.075 10.065-1.41-1.42c-.9 1.16-1.46 2.5-1.63 3.89h2.02c.14-.87.49-1.72 1.02-2.47m-1.02 4.47h-2.02c.17 1.39.72 2.73 1.62 3.89l1.41-1.42c-.52-.75-.87-1.59-1.01-2.47m1.01 5.32c1.16.9 2.51 1.44 3.9 1.61v-2.03c-.87-.15-1.71-.49-2.46-1.03zm5.9-14.25v-3.07l-4.55 4.55 4.55 4.45v-3.91c2.84.48 5 2.94 5 5.91s-2.16 5.43-5 5.91v2.02c3.95-.49 7-3.85 7-7.93s-3.05-7.44-7-7.93"/></svg>
